suite-common/icons/assets/icons/piggyBank.svg

<svg xmlns="http://www.w3.org/2000/svg" viewBox="0 0 32 32">
  <path fill-rule="evenodd" d="m15.627 4.906-2.534.029-.64.151c-1.552.368-2.807.941-4.026 1.839-.892.657-1.982 1.859-2.571 2.835a10.8 10.8 0 0 0-1.404 4.032c-.049.349-.111.662-.139.696-.027.033-.133.076-.234.095s-.401.144-.667.277a3.84 3.84 0 0 0-1.416 1.277c-.234.364-.444 1.012-.485 1.491-.041.491.045.673.378.8.232.088.244.088.422-.022.211-.131.272-.263.356-.779.11-.681.422-1.192.955-1.566.317-.222.689-.408.732-.365.012.012.069.34.126.728a10.4 10.4 0 0 0 2.082 4.909c.441.577.387.45 1.517 3.574.281.777.568 1.499.638 1.604.156.237.561.501.894.584.318.08 2.189.044 2.405-.046.233-.096.56-.381.725-.631a4.3 4.3 0 0 0 .325-.71l.174-.481h7.432l.23.592c.259.67.439.906.868 1.144l.283.157h1.12c.832 0 1.168-.019 1.307-.074.321-.128.588-.337.72-.562.152-.261.627-1.52 1.551-4.117l.685-1.927.509-.026c1.07-.056 1.894-.561 2.3-1.41.225-.472.258-.862.258-3.004 0-1.041-.022-2.069-.05-2.284-.139-1.066-.986-1.912-2.095-2.091l-.39-.063-.124-.328c-.21-.554-.736-1.528-1.112-2.061-.419-.592-1.619-1.819-2.205-2.254a17 17 0 0 0-.877-.597c-.259-.162-.46-.298-.447-.301s.942-.023 2.065-.045c2.034-.039 2.041-.04 2.172-.163a.57.57 0 0 0-.036-.836c-.085-.067-7.946-.114-11.777-.071m2.853 1.118c1.756.079 2.617.28 3.893.912a9.07 9.07 0 0 1 4.51 4.96c.095.248.218.516.274.595.112.161.377.255.72.255.634.001 1.106.275 1.359.788.124.252.124.255.123 2.439-.002 2.445-.002 2.449-.363 2.84-.33.358-.435.393-1.325.446-.459.027-.836.075-.898.113-.135.085-.332.559-.984 2.361-1.476 4.081-1.51 4.165-1.71 4.241-.189.072-1.515.067-1.726-.006-.197-.069-.265-.186-.517-.883a9 9 0 0 0-.262-.658c-.176-.34.106-.32-4.614-.32s-4.438-.02-4.614.32a9 9 0 0 0-.262.658c-.265.733-.32.821-.551.891-.121.036-.501.052-.965.042-.722-.017-.77-.025-.863-.14-.123-.152-.272-.536-1.089-2.812l-.651-1.814-.366-.453a9.2 9.2 0 0 1-1.903-3.987c-.108-.506-.122-.714-.121-1.799.002-1.062.018-1.299.12-1.768.783-3.593 3.523-6.333 7.065-7.062.901-.186 3.509-.258 5.72-.159m-3.959 3.197c-.417.072-.638.423-.47.748.187.362.096.351 2.909.351 2.823 0 2.734.011 2.912-.363.069-.145.071-.202.011-.383-.124-.378-.086-.373-2.763-.383-1.305-.005-2.475.009-2.599.03m7.692 4.702c-.238.07-.56.361-.672.607-.348.766.226 1.634 1.079 1.629.575-.004 1.169-.661 1.093-1.211-.102-.746-.807-1.228-1.5-1.025"/>
</svg>

<svg xmlns="http://www.w3.org/2000/svg" viewBox="0 0 32 32"><path d="M15.627 4.906 L 13.093 4.935 12.453 5.086 C 10.901 5.454,9.646 6.027,8.427 6.925 C 7.535 7.582,6.445 8.784,5.856 9.760 C 5.144 10.942,4.649 12.361,4.452 13.792 C 4.403 14.141,4.341 14.454,4.313 14.488 C 4.286 14.521,4.180 14.564,4.079 14.583 C 3.978 14.602,3.678 14.727,3.412 14.860 C 2.874 15.129,2.321 15.628,1.996 16.137 C 1.762 16.501,1.552 17.149,1.511 17.628 C 1.470 18.119,1.556 18.301,1.889 18.428 C 2.121 18.516,2.133 18.516,2.311 18.406 C 2.522 18.275,2.583 18.143,2.667 17.627 C 2.777 16.946,3.089 16.435,3.622 16.061 C 3.939 15.839,4.311 15.653,4.354 15.696 C 4.366 15.708,4.423 16.036,4.480 16.424 C 4.745 18.232,5.438 19.867,6.562 21.333 C 7.003 21.910,6.949 21.783,8.079 24.907 C 8.360 25.684,8.647 26.406,8.717 26.511 C 8.873 26.748,9.278 27.012,9.611 27.095 C 9.929 27.175,11.800 27.139,12.016 27.049 C 12.249 26.953,12.576 26.668,12.741 26.418 C 12.824 26.292,12.971 25.973,13.066 25.708 L 13.240 25.227 16.956 25.227 L 20.672 25.227 20.902 25.819 C 21.161 26.489,21.341 26.725,21.770 26.963 L 22.053 27.120 23.173 27.120 C 24.005 27.120,24.341 27.101,24.480 27.046 C 24.801 26.918,25.068 26.709,25.200 26.484 C 25.352 26.223,25.827 24.964,26.751 22.367 L 27.436 20.440 27.945 20.414 C 29.015 20.358,29.839 19.853,30.245 19.004 C 30.470 18.532,30.503 18.142,30.503 16.000 C 30.503 14.959,30.481 13.931,30.453 13.716 C 30.314 12.650,29.467 11.804,28.358 11.625 L 27.968 11.562 27.844 11.234 C 27.634 10.680,27.108 9.706,26.732 9.173 C 26.313 8.581,25.113 7.354,24.527 6.919 C 24.304 6.754,23.909 6.485,23.650 6.322 C 23.391 6.160,23.190 6.024,23.203 6.021 C 23.216 6.018,24.145 5.998,25.268 5.976 C 27.302 5.937,27.309 5.936,27.440 5.813 C 27.674 5.594,27.655 5.176,27.404 4.977 C 27.319 4.910,19.458 4.863,15.627 4.906 M18.480 6.024 C 20.236 6.103,21.097 6.304,22.373 6.936 C 24.473 7.974,26.043 9.700,26.883 11.896 C 26.978 12.144,27.101 12.412,27.157 12.491 C 27.269 12.652,27.534 12.746,27.877 12.746 C 28.511 12.747,28.983 13.021,29.236 13.534 C 29.360 13.786,29.360 13.789,29.359 15.973 C 29.357 18.418,29.357 18.422,28.996 18.813 C 28.666 19.171,28.561 19.206,27.671 19.259 C 27.212 19.286,26.835 19.334,26.773 19.372 C 26.638 19.457,26.441 19.931,25.789 21.733 C 24.313 25.814,24.279 25.898,24.079 25.974 C 23.890 26.046,22.564 26.041,22.353 25.968 C 22.156 25.899,22.088 25.782,21.836 25.085 C 21.735 24.808,21.617 24.512,21.574 24.427 C 21.398 24.087,21.680 24.107,16.960 24.107 C 12.240 24.107,12.522 24.087,12.346 24.427 C 12.303 24.512,12.185 24.808,12.084 25.085 C 11.819 25.818,11.764 25.906,11.533 25.976 C 11.412 26.012,11.032 26.028,10.568 26.018 C 9.846 26.001,9.798 25.993,9.705 25.878 C 9.582 25.726,9.433 25.342,8.616 23.066 L 7.965 21.252 7.599 20.799 C 6.628 19.597,6.022 18.327,5.696 16.812 C 5.588 16.306,5.574 16.098,5.575 15.013 C 5.577 13.951,5.593 13.714,5.695 13.245 C 6.478 9.652,9.218 6.912,12.760 6.183 C 13.661 5.997,16.269 5.925,18.480 6.024 M14.521 9.221 C 14.104 9.293,13.883 9.644,14.051 9.969 C 14.238 10.331,14.147 10.320,16.960 10.320 C 19.783 10.320,19.694 10.331,19.872 9.957 C 19.941 9.812,19.943 9.755,19.883 9.574 C 19.759 9.196,19.797 9.201,17.120 9.191 C 15.815 9.186,14.645 9.200,14.521 9.221 M22.213 13.923 C 21.975 13.993,21.653 14.284,21.541 14.530 C 21.193 15.296,21.767 16.164,22.620 16.159 C 23.195 16.155,23.789 15.498,23.713 14.948 C 23.611 14.202,22.906 13.720,22.213 13.923 " stroke="none" fill-rule="evenodd" fill="black"></path></svg>
